icons-rebrand/svg/monitoring-light.svg

<svg xmlns="http://www.w3.org/2000/svg" width="32" height="32" viewBox="0 0 32 32"><path d="M19 14C19 15.6569 17.6569 17 16 17C14.3431 17 13 15.6569 13 14C13 12.3431 14.3431 11 16 11C17.6569 11 19 12.3431 19 14ZM18 14C18 12.8954 17.1046 12 16 12C14.8954 12 14 12.8954 14 14C14 15.1046 14.8954 16 16 16C17.1046 16 18 15.1046 18 14Z M11.1315 10.439C12.3491 9.3912 13.9805 8.5 16 8.5C18.0195 8.5 19.6509 9.3912 20.8685 10.439C22.0838 11.4848 22.914 12.7086 23.348 13.4398C23.5505 13.7794 23.5503 14.2214 23.3476 14.5609C22.9135 15.2922 22.0834 16.5155 20.8685 17.561C19.6509 18.6088 18.0195 19.5 16 19.5C13.9805 19.5 12.3491 18.6088 11.1315 17.561C9.91617 16.5152 9.08602 15.2914 8.65202 14.5602C8.44952 14.2206 8.44966 13.7786 8.65245 13.4391C9.08656 12.7078 9.91656 11.4845 11.1315 10.439ZM11.7838 11.197C10.6813 12.1457 9.91598 13.2694 9.51198 13.9502L9.51096 13.9519C9.49668 13.9757 9.49668 14.0243 9.51095 14.0481L9.51198 14.0498C9.91598 14.7306 10.6813 15.8543 11.7838 16.803C12.8839 17.7497 14.2925 18.5 16 18.5C17.7075 18.5 19.1161 17.7497 20.2162 16.803C21.3187 15.8543 22.084 14.7306 22.488 14.0498L22.489 14.0481C22.5033 14.0243 22.5033 13.9757 22.489 13.9519L22.488 13.9502C22.084 13.2694 21.3187 12.1457 20.2162 11.197C19.1161 10.2503 17.7075 9.5 16 9.5C14.2925 9.5 12.8839 10.2503 11.7838 11.197Z M29.2315 22.001C29.1103 21.8443 28.9547 21.7176 28.7768 21.6307C28.5988 21.5438 28.4032 21.4991 28.2051 21.5H27.5V10.1348C27.5163 8.92392 27.0517 7.756 26.2081 6.88716C25.3645 6.01831 24.2108 5.51946 23 5.5H9.00001C7.78917 5.51946 6.63547 6.01831 5.7919 6.88716C4.94832 7.756 4.48373 8.92392 4.50001 10.1348V21.5H3.79493C3.59686 21.4991 3.40125 21.5438 3.22326 21.6307C3.04527 21.7176 2.88968 21.8443 2.76856 22.001C2.6491 22.1532 2.56633 22.3308 2.5267 22.5202C2.48706 22.7095 2.49161 22.9055 2.54001 23.0928C2.79392 24.0729 3.3676 24.9402 4.17017 25.5574C4.97274 26.1745 5.95829 26.5063 6.97071 26.5H25.0293C26.0416 26.5063 27.027 26.1747 27.8296 25.5577C28.6321 24.9408 29.2059 24.0737 29.46 23.0938C29.5085 22.9063 29.513 22.7102 29.4734 22.5207C29.4338 22.3312 29.351 22.1533 29.2315 22.001ZM5.50001 10.1348C5.48355 9.18907 5.84272 8.2754 6.4988 7.59405C7.15488 6.91271 8.05433 6.51928 9.00001 6.5H23C23.9457 6.51928 24.8451 6.91271 25.5012 7.59405C26.1573 8.2754 26.5165 9.18907 26.5 10.1348V21.5H5.50001V10.1348ZM25.0293 25.5H6.97071C6.18052 25.5061 5.41088 25.2484 4.78377 24.7676C4.15667 24.2868 3.70797 23.6104 3.5088 22.8457C3.49842 22.806 3.49743 22.7644 3.50591 22.7242C3.51438 22.684 3.53209 22.6464 3.55763 22.6143C3.58581 22.5783 3.62186 22.5493 3.663 22.5295C3.70414 22.5097 3.74927 22.4996 3.79493 22.5H28.2051C28.2507 22.4996 28.2959 22.5097 28.337 22.5295C28.3782 22.5493 28.4142 22.5783 28.4424 22.6143C28.468 22.6466 28.4857 22.6844 28.4942 22.7247C28.5027 22.765 28.5016 22.8068 28.4912 22.8467C28.2918 23.6112 27.843 24.2873 27.216 24.7679C26.5889 25.2485 25.8194 25.5062 25.0293 25.5Z"/></svg>

<svg width="32" height="32" viewBox="0 0 32 32" xmlns="http://www.w3.org/2000/svg"><path d="M19 14a3 3 0 1 1-6 0 3 3 0 0 1 6 0Zm-1 0a2 2 0 1 0-4 0 2 2 0 0 0 4 0Zm-6.868-3.561C12.349 9.391 13.98 8.5 16 8.5c2.02 0 3.65.891 4.869 1.939 1.215 1.046 2.045 2.27 2.479 3 .203.34.202.782 0 1.122-.434.731-1.265 1.954-2.48 3C19.652 18.609 18.02 19.5 16 19.5c-2.02 0-3.65-.891-4.868-1.939-1.216-1.046-2.046-2.27-2.48-3a1.11 1.11 0 0 1 0-1.122c.435-.731 1.265-1.954 2.48-3Zm.652.758c-1.103.949-1.868 2.072-2.272 2.753l-.001.002a.113.113 0 0 0 0 .096l.001.002c.404.68 1.17 1.804 2.272 2.753 1.1.947 2.508 1.697 4.216 1.697 1.707 0 3.116-.75 4.216-1.697 1.103-.949 1.868-2.072 2.272-2.753l.001-.002a.113.113 0 0 0 0-.096l-.001-.002c-.404-.68-1.17-1.804-2.272-2.753C19.116 10.25 17.707 9.5 16 9.5c-1.707 0-3.116.75-4.216 1.697ZM29.23 22.001a1.291 1.291 0 0 0-1.026-.501H27.5V10.135A4.574 4.574 0 0 0 23 5.5H9a4.574 4.574 0 0 0-4.5 4.635V21.5h-.705a1.29 1.29 0 0 0-1.268 1.02c-.04.19-.035.386.013.573A4.548 4.548 0 0 0 6.97 26.5h18.06a4.548 4.548 0 0 0 4.43-3.406A1.26 1.26 0 0 0 29.231 22ZM5.5 10.135A3.573 3.573 0 0 1 9 6.5h14a3.573 3.573 0 0 1 3.5 3.635V21.5h-21V10.135ZM25.03 25.5H6.97a3.55 3.55 0 0 1-3.461-2.654.265.265 0 0 1 .049-.232.298.298 0 0 1 .237-.114h24.41a.298.298 0 0 1 .237.114.266.266 0 0 1 .05.233 3.55 3.55 0 0 1-3.463 2.653Z"/></svg>
